X: 1
T: BLUE MOON
C: R.Rodgers
M: C|
L: 1/8
K: C
%
[| "G7"z2G2 | "C"G4- "Am"G4- | "Dm"GFGA "G7"GGFG- | "C"G4- "Am"G4- | "Dm"GDEF "G7"EEDE- |
%
  "C"E4- "Am"E4- | "Dm"ECDE "G7"CCCC- | "C"C4- "Am"C4- | "Dm"C4 ||
%
"G7"z2G2 | "C"G4- "Am"G4- | "Dm"GFGA "G7"GGFG- | "C"G G3- "Am"G4- | "Dm"GDEF "G7"EEDE- |
%
  "C"E E3- "Am"E4- | "Dm"ECDE "G7"CCCC- | "C"CC3- "(F)"C4- | "C"C4 ||
%
zCCC | "Dm7"DDDD "G7"E2E2 | "C"CC3 zCCC | "Dm7"DDDD "G7"E2E2 | "C"C4 zC"C7"CC |
%
  "Fm"CCCC "B7"D2D2 | "Eb"_B,B,3 zB,B,B, | "G"=B,B,B,B, "D7"D2D2 | "Dm7"G4  ||
%
"G7"z2G2 | "C"G4- "Am"G4- | "Dm"GFGA "G7"GGFG- | "C"G4- "Am"G4- | "Dm"GDEF "G7"EEDE- |
%
  "C"E4- "Am"E4- | "Dm"ECDE "G7"CCCC- | "C"C4- "(F)"C4- | "C"C4 |]
